X: 768
T: A Trip to the Lawndry
P: Longways for as many as will.
%R: reel
B: "Caledonian Country Dances" printed by John Walsh for John Johnson, London
S: 1: CCDTB http://imslp.org/wiki/Caledonian_Country_Dances_with_a_Thorough_Bass_(Various) p.12
S: 3: "Caledonian Country Dances" printed by John Walsh for John Johnson, London p.20
Z: 2013 John Chambers <jc:trillian.mit.edu>
M: 2/4
L: 1/16
K: A
% - - - - - - - - - - - - - - - - - - - - - - - - -
V: 1
|: A2c2 B2d2 | c2e2 B2d2 | (dc)(BA) G2B2 | d2 TB6 |\
   A2c2 B2d2 | c2e2 B2d2 |  dc``BA  G2B2 | c2 TA6 :|
|: e2a2 (ag)(fe) | (fe)(dc) (dc)(BA) | e2a2 Tg2f2 | gab2 e4 |\
   e2a2 (ag)(fe) | (fe)(dc) (dc)(BA) | cecA BdBG | c2 TA6 :|
% - - - - - - - - - - - - - - - - - - - - - - - - -
V: 2 clef=bass middle=d
|: a4 e4 | a4 g4 | a4 e4 | e2ef g2e2 |\
   a4 e4 | a4 g4 | a2d2 e2E2 | A8 :|
|: c2A2 B2c2 | d2f2 a2d2 | c2A2 B2d2 | e6 d2 |\
   c2A2 B2c2 | d2f2 a2d2 | e4 E4 | A8 :|
% - - - - - - - - - - - - - - - - - - - - - - - - -
%%begintext align
%% Right hands, sideways, half round, set and turn single .|
%% First Cu. lead thro' the 3d Cu. and Right Hands again :|
%% Hey on the contrary sides and turn Partners .|
%% Hey on your own sides and cast off :|
%%endtext

%%sep 1 1 500
%%sep 1 1 500
